src/icons/svgs/24/bars.svg

<svg width="24" height="24" viewBox="0 0 24 24" fill="none" xmlns="http://www.w3.org/2000/svg">
<path d="M20.4821 6.08696H3.47969C2.95804 6.08696 2.5 5.61739 2.5 5.08261C2.5 4.46956 2.95804 4 3.47969 4H20.4821C21.042 4 21.5 4.46957 21.5 5.00435C21.5 5.61739 21.042 6.08696 20.4821 6.08696ZM20.4821 20H3.47969C2.95804 20 2.5 19.5304 2.5 18.9957C2.5 18.4609 2.95804 17.913 3.47969 17.913H20.4821C21.042 17.913 21.5 18.3826 21.5 18.9174C21.5 19.4522 21.042 20 20.4821 20ZM20.4821 13.0435H3.47969C2.95804 13.0435 2.5 12.5739 2.5 12C2.5 11.4261 2.95804 10.9565 3.47969 10.9565H20.4821C21.042 10.9565 21.5 11.4261 21.5 12C21.5 12.5739 21.042 13.0435 20.4821 13.0435Z" fill="black"/>
</svg>

<svg width="24" height="24" viewBox="0 0 24 24" xmlns="http://www.w3.org/2000/svg">
    <path d="M20.482 6.087H3.48c-.522 0-.98-.47-.98-1.004C2.5 4.47 2.958 4 3.48 4h17.002c.56 0 1.018.47 1.018 1.004 0 .613-.458 1.083-1.018 1.083Zm0 13.913H3.48c-.522 0-.98-.47-.98-1.004 0-.535.458-1.083.98-1.083h17.002c.56 0 1.018.47 1.018 1.004 0 .535-.458 1.083-1.018 1.083Zm0-6.957H3.48c-.522 0-.98-.47-.98-1.043 0-.574.458-1.043.98-1.043h17.002c.56 0 1.018.47 1.018 1.043 0 .574-.458 1.043-1.018 1.043Z"/>
</svg>
